X:1
T:Caleche Creek
C:Jim Mullaney
R:reel
M:4/4
L:1/8
K:C
V:2 clef=alto middle=C
D,E,F,G, | "Dm"A,2 A,2 "C"G,2 G,2 | "Dm"A,2 A,2 D,E,F,G, | A,2 A,2 "C"G,2 G,2 | "Dm"F,4 D,E,F,G, |
A,2 A,2 "C"G,2 G,2 | "Dm"A,2 A,2 D,E,F,G, | A,2 A,2 "C"G,E, F,2 | "Dm"D,4 :|]
[ |: G,A,B,C | "Dm"D2 D2 "C"C2 C2 | "Dm"D2 D2 G,A,B,C | "C" E4 E3 E | "Dm"F2 E2 D4 |
D2 D2 "C"C2 C2 | "Dm" A,2 A,2 "C"G,4 | "Dm"A,2 A,2 "C"G,E, F,2 | "Dm"D,4 :|]
